**kern	**kern	**dynam
*part1	*part1	*part1
*staff2	*staff1	*
*I"Piano	*	*
*clefF4	*clefG2	*
*k[b-e-a-]	*k[b-e-a-]	*
=1	=1	=1
*	*^	*
[4FF [4C [4F	4f 4a-	16d-XLL	.
.	.	16c	.
.	.	16Bn	.
.	.	16cJJ	.
*	*v	*v	*
4FF] 4C] 4F]	8A-L 8f	.
.	8cJ 8a-	.
=	=	=
4GG 4G	8e-L 8g 8cc	.
.	8cJ	.
4FF 4F	8e-L 8a- 8cc	.
.	8dJ	.
=	=	=
4EE- 4E-	8gL 8cc	.
.	8cJ	<
4EEE- 4EE-	8GL 8c 8g	.
.	8cJ 8cc	.
=	=	=
[4GGG-X [4GG-X	8e-L 8a- 8cc	.
.	8cJ 8cc	.
4GGG-] 4GG-]	8e-L 8cc 8ee-	[
.	8cJ 8a- 8cc	.
=	=	=
*	*^	*
4GGGn 4GGn	4e- 4g	16A-LL	.
.	.	16G	.
.	.	16F#X	.
.	.	16GJJ	.
*	*v	*v	*
4AAA- 4AA-	8E-L 8c	.
!	!	!LO:DY:a
.	8A-J 8c	>
=	=	=
*^	*	*
!	!	!LO:TX:b:i:t=rit.	!
16E-LL	4FFF 4FF	4A- 4c	.
16D	.	.	.
16C#X	.	.	.
16DJJ	.	.	.
!	!	!LO:TX:a:i:t=ten.	!
8FL	4GGG 4GG	8Bn;	.
8GJ	.	8ryy	.
=	=	=	=
2E- 2G	8CCL	2c	.
.	8AA-	.	.
.	8GG	.	.
.	8EE-J	.	.
*v	*v	*	*
=	=	=
4CCC 4CC	4r	]
8r;	8r;	.
==	==	==
*-	*-	*-
!!!system-decoration: {(s1,s2)}
